app/assets/img/work/ttl-trocco-sp.svg

<svg fill="none" height="19" viewBox="0 0 78 19" width="78" xmlns="http://www.w3.org/2000/svg"><path d="m6.292 18.208c-.64133 0-1.209-.091-1.703-.273-.48533-.1907-.897-.455-1.235-.793-.32933-.3467-.58067-.7627-.754-1.248s-.26-1.027-.26-1.625v-6.968h-1.144c-.208 0-.385667-.065-.533-.195-.147333-.13867-.221-.338-.221-.598v-1.573l2.145-.416.793-3.289c.104-.416001.39867-.624001.884-.624001h2.106v3.939001h3.276v2.756h-3.276v6.695c0 .312.07367.572.221.78.156.1993.377.299.663.299.14733 0 .26867-.013.364-.039.104-.0347.19067-.0693.26-.104.078-.0433.14733-.078.208-.104.06933-.0347.14733-.052.234-.052.12133 0 .21667.0303.286.091.078.052.156.1387.234.26l1.222 1.911c-.52.39-1.105.6847-1.755.884-.65.1907-1.32167.286-2.015.286zm5.9382-.208v-13.481h2.392c.1993 0 .364.01733.494.052.1386.03467.2513.091.338.169.0953.06933.1646.16467.208.286.052.12133.0953.26867.13.442l.221 1.261c.494-.76267 1.0486-1.365 1.664-1.807.6153-.442 1.287-.663 2.015-.663.6153 0 1.1093.14733 1.482.442l-.52 2.964c-.0347.182-.104.312-.208.39-.104.06933-.2427.104-.416.104-.1474 0-.3207-.01733-.52-.052-.1994-.04333-.4507-.065-.754-.065-1.0574 0-1.8894.56333-2.496 1.69v8.268zm17.0062-13.689c1.0227 0 1.9543.16033 2.795.481s1.56.78 2.158 1.378c.6067.598 1.0747 1.326 1.404 2.184.338.84933.507 1.807.507 2.873 0 1.0747-.169 2.0453-.507 2.912-.3293.858-.7973 1.5903-1.404 2.197-.598.598-1.3173 1.0617-2.158 1.391-.8407.3207-1.7723.481-2.795.481-1.0313 0-1.9717-.1603-2.821-.481-.8407-.3293-1.5687-.793-2.184-1.391-.6067-.6067-1.079-1.339-1.417-2.197-.3293-.8667-.494-1.8373-.494-2.912 0-1.066.1647-2.02367.494-2.873.338-.858.8103-1.586 1.417-2.184.6153-.598 1.3433-1.05733 2.184-1.378.8493-.32067 1.7897-.481 2.821-.481zm0 10.907c.9273 0 1.6077-.325 2.041-.975.442-.6587.663-1.6553.663-2.99 0-1.33467-.221-2.327-.663-2.977-.4333-.65-1.1137-.975-2.041-.975-.9533 0-1.651.325-2.093.975s-.663 1.64233-.663 2.977c0 1.3347.221 2.3313.663 2.99.442.65 1.1397.975 2.093.975zm19.06-7.501c-.1213.14733-.2383.26433-.351.351-.1126.08667-.273.13-.481.13-.1993 0-.3813-.04767-.546-.143-.156-.09533-.3336-.19933-.533-.312-.1993-.12133-.4333-.22967-.702-.325-.2686-.09533-.6023-.143-1.001-.143-.494 0-.923.091-1.287.273-.3553.182-.65.442-.884.78s-.4073.754-.52 1.248c-.1126.4853-.169 1.0357-.169 1.651 0 1.2913.247 2.2837.741 2.977.5027.6933 1.1917 1.04 2.067 1.04.468 0 .8364-.0563 1.105-.169.2774-.1213.5114-.2513.702-.39.1907-.1473.364-.2817.52-.403.1647-.1213.3684-.182.611-.182.3207 0 .5634.117.728.351l1.17 1.443c-.416.4767-.8536.8667-1.313 1.17-.4593.2947-.9316.5287-1.417.702-.4766.1647-.9576.2773-1.443.338-.4853.0693-.9576.104-1.417.104-.8233 0-1.612-.156-2.366-.468-.7453-.312-1.404-.7627-1.976-1.352-.5633-.598-1.014-1.3303-1.352-2.197-.3293-.8667-.494-1.8547-.494-2.964 0-.9707.143-1.87633.429-2.717.2947-.84933.7237-1.58167 1.287-2.197.572-.624 1.274-1.11367 2.106-1.469.8407-.35533 1.8114-.533 2.912-.533 1.0574 0 1.9847.169 2.782.507.7974.338 1.5167.832 2.158 1.482zm12.9046 0c-.1214.14733-.2384.26433-.351.351-.1127.08667-.273.13-.481.13-.1994 0-.3814-.04767-.546-.143-.156-.09533-.3337-.19933-.533-.312-.1994-.12133-.4334-.22967-.702-.325-.2687-.09533-.6024-.143-1.001-.143-.494 0-.923.091-1.287.273-.3554.182-.65.442-.884.78s-.4074.754-.52 1.248c-.1127.4853-.169 1.0357-.169 1.651 0 1.2913.247 2.2837.741 2.977.5026.6933 1.1916 1.04 2.067 1.04.468 0 .8363-.0563 1.105-.169.2773-.1213.5113-.2513.702-.39.1906-.1473.364-.2817.52-.403.1646-.1213.3683-.182.611-.182.3206 0 .5633.117.728.351l1.17 1.443c-.416.4767-.8537.8667-1.313 1.17-.4594.2947-.9317.5287-1.417.702-.4767.1647-.9577.2773-1.443.338-.4854.0693-.9577.104-1.417.104-.8234 0-1.612-.156-2.366-.468-.7454-.312-1.404-.7627-1.976-1.352-.5634-.598-1.014-1.3303-1.352-2.197-.3294-.8667-.494-1.8547-.494-2.964 0-.9707.143-1.87633.429-2.717.2946-.84933.7236-1.58167 1.287-2.197.572-.624 1.274-1.11367 2.106-1.469.8406-.35533 1.8113-.533 2.912-.533 1.0573 0 1.9846.169 2.782.507.7973.338 1.5166.832 2.158 1.482zm9.1865-3.406c1.0227 0 1.9543.16033 2.795.481s1.56.78 2.158 1.378c.6067.598 1.0747 1.326 1.404 2.184.338.84933.507 1.807.507 2.873 0 1.0747-.169 2.0453-.507 2.912-.3293.858-.7973 1.5903-1.404 2.197-.598.598-1.3173 1.0617-2.158 1.391-.8407.3207-1.7723.481-2.795.481-1.0313 0-1.9717-.1603-2.821-.481-.8407-.3293-1.5687-.793-2.184-1.391-.6067-.6067-1.079-1.339-1.417-2.197-.3293-.8667-.494-1.8373-.494-2.912 0-1.066.1647-2.02367.494-2.873.338-.858.8103-1.586 1.417-2.184.6153-.598 1.3433-1.05733 2.184-1.378.8493-.32067 1.7897-.481 2.821-.481zm0 10.907c.9273 0 1.6077-.325 2.041-.975.442-.6587.663-1.6553.663-2.99 0-1.33467-.221-2.327-.663-2.977-.4333-.65-1.1137-.975-2.041-.975-.9533 0-1.651.325-2.093.975s-.663 1.64233-.663 2.977c0 1.3347.221 2.3313.663 2.99.442.65 1.1397.975 2.093.975z" fill="#121111"/></svg>

<svg width="78" height="19" viewBox="0 0 78 19" fill="none" xmlns="http://www.w3.org/2000/svg">
<path d="M6.292 18.208C5.65067 18.208 5.083 18.117 4.589 17.935C4.10367 17.7443 3.692 17.48 3.354 17.142C3.02467 16.7953 2.77333 16.3793 2.6 15.894C2.42667 15.4087 2.34 14.867 2.34 14.269V7.301H1.196C0.988 7.301 0.810333 7.236 0.663 7.106C0.515667 6.96733 0.442 6.768 0.442 6.508V4.935L2.587 4.519L3.38 1.23C3.484 0.813999 3.77867 0.605999 4.264 0.605999H6.37V4.545H9.646V7.301H6.37V13.996C6.37 14.308 6.44367 14.568 6.591 14.776C6.747 14.9753 6.968 15.075 7.254 15.075C7.40133 15.075 7.52267 15.062 7.618 15.036C7.722 15.0013 7.80867 14.9667 7.878 14.932C7.956 14.8887 8.02533 14.854 8.086 14.828C8.15533 14.7933 8.23333 14.776 8.32 14.776C8.44133 14.776 8.53667 14.8063 8.606 14.867C8.684 14.919 8.762 15.0057 8.84 15.127L10.062 17.038C9.542 17.428 8.957 17.7227 8.307 17.922C7.657 18.1127 6.98533 18.208 6.292 18.208ZM12.2302 18V4.519H14.6222C14.8215 4.519 14.9862 4.53633 15.1162 4.571C15.2548 4.60567 15.3675 4.662 15.4542 4.74C15.5495 4.80933 15.6188 4.90467 15.6622 5.026C15.7142 5.14733 15.7575 5.29467 15.7922 5.468L16.0132 6.729C16.5072 5.96633 17.0618 5.364 17.6772 4.922C18.2925 4.48 18.9642 4.259 19.6922 4.259C20.3075 4.259 20.8015 4.40633 21.1742 4.701L20.6542 7.665C20.6195 7.847 20.5502 7.977 20.4462 8.055C20.3422 8.12433 20.2035 8.159 20.0302 8.159C19.8828 8.159 19.7095 8.14167 19.5102 8.107C19.3108 8.06367 19.0595 8.042 18.7562 8.042C17.6988 8.042 16.8668 8.60533 16.2602 9.732V18H12.2302ZM29.2364 4.311C30.2591 4.311 31.1907 4.47133 32.0314 4.792C32.8721 5.11267 33.5914 5.572 34.1894 6.17C34.7961 6.768 35.2641 7.496 35.5934 8.354C35.9314 9.20333 36.1004 10.161 36.1004 11.227C36.1004 12.3017 35.9314 13.2723 35.5934 14.139C35.2641 14.997 34.7961 15.7293 34.1894 16.336C33.5914 16.934 32.8721 17.3977 32.0314 17.727C31.1907 18.0477 30.2591 18.208 29.2364 18.208C28.2051 18.208 27.2647 18.0477 26.4154 17.727C25.5747 17.3977 24.8467 16.934 24.2314 16.336C23.6247 15.7293 23.1524 14.997 22.8144 14.139C22.4851 13.2723 22.3204 12.3017 22.3204 11.227C22.3204 10.161 22.4851 9.20333 22.8144 8.354C23.1524 7.496 23.6247 6.768 24.2314 6.17C24.8467 5.572 25.5747 5.11267 26.4154 4.792C27.2647 4.47133 28.2051 4.311 29.2364 4.311ZM29.2364 15.218C30.1637 15.218 30.8441 14.893 31.2774 14.243C31.7194 13.5843 31.9404 12.5877 31.9404 11.253C31.9404 9.91833 31.7194 8.926 31.2774 8.276C30.8441 7.626 30.1637 7.301 29.2364 7.301C28.2831 7.301 27.5854 7.626 27.1434 8.276C26.7014 8.926 26.4804 9.91833 26.4804 11.253C26.4804 12.5877 26.7014 13.5843 27.1434 14.243C27.5854 14.893 28.2831 15.218 29.2364 15.218ZM48.2964 7.717C48.1751 7.86433 48.0581 7.98133 47.9454 8.068C47.8328 8.15467 47.6724 8.198 47.4644 8.198C47.2651 8.198 47.0831 8.15033 46.9184 8.055C46.7624 7.95967 46.5848 7.85567 46.3854 7.743C46.1861 7.62167 45.9521 7.51333 45.6834 7.418C45.4148 7.32267 45.0811 7.275 44.6824 7.275C44.1884 7.275 43.7594 7.366 43.3954 7.548C43.0401 7.73 42.7454 7.99 42.5114 8.328C42.2774 8.666 42.1041 9.082 41.9914 9.576C41.8788 10.0613 41.8224 10.6117 41.8224 11.227C41.8224 12.5183 42.0694 13.5107 42.5634 14.204C43.0661 14.8973 43.7551 15.244 44.6304 15.244C45.0984 15.244 45.4668 15.1877 45.7354 15.075C46.0128 14.9537 46.2468 14.8237 46.4374 14.685C46.6281 14.5377 46.8014 14.4033 46.9574 14.282C47.1221 14.1607 47.3258 14.1 47.5684 14.1C47.8891 14.1 48.1318 14.217 48.2964 14.451L49.4664 15.894C49.0504 16.3707 48.6128 16.7607 48.1534 17.064C47.6941 17.3587 47.2218 17.5927 46.7364 17.766C46.2598 17.9307 45.7788 18.0433 45.2934 18.104C44.8081 18.1733 44.3358 18.208 43.8764 18.208C43.0531 18.208 42.2644 18.052 41.5104 17.74C40.7651 17.428 40.1064 16.9773 39.5344 16.388C38.9711 15.79 38.5204 15.0577 38.1824 14.191C37.8531 13.3243 37.6884 12.3363 37.6884 11.227C37.6884 10.2563 37.8314 9.35067 38.1174 8.51C38.4121 7.66067 38.8411 6.92833 39.4044 6.313C39.9764 5.689 40.6784 5.19933 41.5104 4.844C42.3511 4.48867 43.3218 4.311 44.4224 4.311C45.4798 4.311 46.4071 4.48 47.2044 4.818C48.0018 5.156 48.7211 5.65 49.3624 6.3L48.2964 7.717ZM61.201 7.717C61.0796 7.86433 60.9626 7.98133 60.85 8.068C60.7373 8.15467 60.577 8.198 60.369 8.198C60.1696 8.198 59.9876 8.15033 59.823 8.055C59.667 7.95967 59.4893 7.85567 59.29 7.743C59.0906 7.62167 58.8566 7.51333 58.588 7.418C58.3193 7.32267 57.9856 7.275 57.587 7.275C57.093 7.275 56.664 7.366 56.3 7.548C55.9446 7.73 55.65 7.99 55.416 8.328C55.182 8.666 55.0086 9.082 54.896 9.576C54.7833 10.0613 54.727 10.6117 54.727 11.227C54.727 12.5183 54.974 13.5107 55.468 14.204C55.9706 14.8973 56.6596 15.244 57.535 15.244C58.003 15.244 58.3713 15.1877 58.64 15.075C58.9173 14.9537 59.1513 14.8237 59.342 14.685C59.5326 14.5377 59.706 14.4033 59.862 14.282C60.0266 14.1607 60.2303 14.1 60.473 14.1C60.7936 14.1 61.0363 14.217 61.201 14.451L62.371 15.894C61.955 16.3707 61.5173 16.7607 61.058 17.064C60.5986 17.3587 60.1263 17.5927 59.641 17.766C59.1643 17.9307 58.6833 18.0433 58.198 18.104C57.7126 18.1733 57.2403 18.208 56.781 18.208C55.9576 18.208 55.169 18.052 54.415 17.74C53.6696 17.428 53.011 16.9773 52.439 16.388C51.8756 15.79 51.425 15.0577 51.087 14.191C50.7576 13.3243 50.593 12.3363 50.593 11.227C50.593 10.2563 50.736 9.35067 51.022 8.51C51.3166 7.66067 51.7456 6.92833 52.309 6.313C52.881 5.689 53.583 5.19933 54.415 4.844C55.2556 4.48867 56.2263 4.311 57.327 4.311C58.3843 4.311 59.3116 4.48 60.109 4.818C60.9063 5.156 61.6256 5.65 62.267 6.3L61.201 7.717ZM70.3875 4.311C71.4102 4.311 72.3418 4.47133 73.1825 4.792C74.0232 5.11267 74.7425 5.572 75.3405 6.17C75.9472 6.768 76.4152 7.496 76.7445 8.354C77.0825 9.20333 77.2515 10.161 77.2515 11.227C77.2515 12.3017 77.0825 13.2723 76.7445 14.139C76.4152 14.997 75.9472 15.7293 75.3405 16.336C74.7425 16.934 74.0232 17.3977 73.1825 17.727C72.3418 18.0477 71.4102 18.208 70.3875 18.208C69.3562 18.208 68.4158 18.0477 67.5665 17.727C66.7258 17.3977 65.9978 16.934 65.3825 16.336C64.7758 15.7293 64.3035 14.997 63.9655 14.139C63.6362 13.2723 63.4715 12.3017 63.4715 11.227C63.4715 10.161 63.6362 9.20333 63.9655 8.354C64.3035 7.496 64.7758 6.768 65.3825 6.17C65.9978 5.572 66.7258 5.11267 67.5665 4.792C68.4158 4.47133 69.3562 4.311 70.3875 4.311ZM70.3875 15.218C71.3148 15.218 71.9952 14.893 72.4285 14.243C72.8705 13.5843 73.0915 12.5877 73.0915 11.253C73.0915 9.91833 72.8705 8.926 72.4285 8.276C71.9952 7.626 71.3148 7.301 70.3875 7.301C69.4342 7.301 68.7365 7.626 68.2945 8.276C67.8525 8.926 67.6315 9.91833 67.6315 11.253C67.6315 12.5877 67.8525 13.5843 68.2945 14.243C68.7365 14.893 69.4342 15.218 70.3875 15.218Z" fill="#121111"/>
</svg>
